!!!OTL: Coloured Girl from the South
!!!ONM: 112.
**kern
*clefG2
*k[]
*C:
*M4/4
*MM80
{4c
=1
4c
4e
4.e
8d
=2
4c
4e
4e}
{4e
=3
4c
4e
4.g
8g
=4
4.d
8r
4r}
{4e
=5
4c
4e
4.e
8d
=6
4c
4e
4e}
{4d
=7
4d
4g
4e
4d
=8
2.c
=||
8r}
{16c
16c
=9
4c
4e
4e
8r
8d
=10
4c
4e
4e}
{4d
=11
(4c
4e)
4.g
8g
=12
2.d
8r}
{8d
=13
4c
4e
4.g
8e
=14
4f
4g
4a
8r}
{8g
=15
4g
4g
4f
4d
=16
2.c}
==
*-
!!!CNT: Folksongs of Maritime Canada
!!!MRD: 1928///-1932///
!!!OCL: Helen Creighton
!!!YOR: Songs and Ballads from Nova Scotia
!!!PPR: J.M. Dent & Sons, Limited
!!!PPP: Toronto, Canada
!!!PDT: 1932///
!!!reprint: Dover Publications, 1992: ISBN 0-486-21703-5
!!!ENC1: Craig Stuart Sapp (music and bibliographic data)                       
!!!ENC2: Marcus Pearce (phrase markings and key designations)                   
!!!ENC3: Darrell Conklin (phrase markings and key designations)   
!!!END: 2002/04/10/
!!!EEV: 2004/06/05
!!!MPN: Mr. Richard Hartlan
!!!PPG: 243
!!!EFL: 113/152
!!!ARE: Canada; Nova Scotia
!!!verses: 4
!!!VTS: 2329773811
